X:1
T:Tobacco's But an Indian Weed
M:4/4
L:1/8
K:F
 z4 z2 D2| G3 A B3 G| c2 B2 A2 z D| G2 GA B3 G| c2 B2 A2 z B| d2 dB c2 zA/2-B/2|\
 c2 BA B2 z D/2D/2| G2 GG d- g2 c| B2G-A z4|
